;FLAVOR:Marlin
;TIME:8225
;Filament used: 6.49021m
;Layer height: 0.2
;MINX:70.931
;MINY:57.277
;MINZ:0.1
;MAXX:139.099
;MAXY:171.458
;MAXZ:45.6
;TARGET_MACHINE.NAME:Anycubic i3 Mega
;Generated with Cura_SteamEngine 5.7.0-alpha.0
M140 S60
M105
M190 S60
M104 S220
M105
M109 S220
M82 ;absolute extrusion mode
G21 ;metric values
G90 ;absolute positioning
M82 ;set extruder to absolute mode
M107 ;start with the fan off
G28 X0 Y0 ;move X/Y to min endstops
G28 Z0 ;move Z to min endstops
G1 Z15.0 F100 ;move the platform down 15mm
G92 E0 ;zero the extruded length
G1 F200 E3 ;extrude 3mm of feed stock
G92 E0 ;zero the extruded length again
G1 F100
G0 Y20 F100
M117 Printing...
G5
G92 E0
G92 E0
G1 F2400 E-6
;LAYER_COUNT:228
;LAYER:0
M107
M204 S3000
M205 X10 Y10
G1 F600 Z0.275
G0 F3000 X84.754 Y59.909 Z0.275
M204 S1800
M205 X8 Y8
;TYPE:SKIRT
G1 F600 Z0.2
G1 F2400 E0
G1 X85.255 Y59.306 E0.0365
G1 X85.777 Y58.811 E0.07
G1 X86.467 Y58.301 E0.10996
G1 X87.152 Y57.919 E0.14648
G1 X87.752 Y57.668 E0.17676
G1 X88.591 Y57.425 E0.21743
G1 X89.72 Y57.293 E0.27036
G1 X90.3 Y57.277 E0.29738
G1 X119.409 Y57.277 E1.65282
G1 X120.183 Y57.288 E1.68886
G1 X120.969 Y57.35 E1.72557
G1 X121.807 Y57.523 E1.76542
G1 X122.423 Y57.729 E1.79566
G1 X123.259 Y58.128 E1.8388
G1 X123.915 Y58.556 E1.87527
G1 X124.465 Y59.016 E1.90866
G1 X124.961 Y59.537 E1.94215
G1 X125.47 Y60.223 E1.98193
G1 X125.857 Y60.915 E2.01885
G1 X126.182 Y61.731 E2.05975
G1 X126.395 Y62.598 E2.10132
G1 X126.836 Y65.388 E2.23285
G1 X127.317 Y67.967 E2.35501
G1 X127.877 Y70.556 E2.47835
G1 X128.503 Y73.107 E2.60066
G1 X129.22 Y75.706 E2.7262
G1 X129.996 Y78.233 E2.84929
G1 X130.848 Y80.757 E2.97333
G1 X131.747 Y83.187 E3.09398
G1 X132.758 Y85.701 E3.22015
G1 X133.796 Y88.085 E3.34123
G1 X134.927 Y90.496 E3.46523
G1 X136.117 Y92.857 E3.58835
G1 X137.684 Y95.743 E3.74126
G1 X138.056 Y96.564 E3.78323
G1 X138.3 Y97.346 E3.82138
G1 X138.696 Y98.707 E3.88738
G1 X138.882 Y99.39 E3.92034
G1 X139.032 Y100.127 E3.95536
G1 X139.099 Y100.979 E3.99516
G1 X139.064 Y101.702 E4.02886
G1 X138.895 Y102.653 E4.07384
G1 X138.739 Y103.245 E4.10234
G1 X137.585 Y107.358 E4.30126
G1 X136.957 Y109.873 E4.42196
G1 X136.38 Y112.49 E4.54675
G1 X135.884 Y115.099 E4.67041
G1 X135.46 Y117.733 E4.79464
G1 X135.118 Y120.315 E4.91592
G1 X134.843 Y122.975 E5.04044
G1 X134.643 Y125.617 E5.16381
G1 X134.523 Y128.212 E5.28478
G1 X134.473 Y130.888 E5.4094
G1 X134.498 Y133.527 E5.53229
G1 X134.599 Y136.171 E5.6555
G1 X134.775 Y138.83 E5.77958
G1 X135.022 Y141.434 E5.90138
G1 X135.305 Y143.787 E6.01174
G1 X135.349 Y144.645 E6.05174
G1 X135.299 Y145.359 E6.08507
G1 X135.149 Y146.175 E6.1237
G1 X134.777 Y147.52 E6.18868
G1 X134.59 Y148.153 E6.21942
G1 X134.29 Y148.958 E6.25942
G1 X133.924 Y149.654 E6.29604
G1 X133.481 Y150.295 E6.33232
G1 X133.069 Y150.77 E6.3616
G1 X132.405 Y151.454 E6.40599
G1 X131.578 Y152.262 E6.45982
G1 X130.924 Y152.808 E6.49949
G1 X128.586 Y154.464 E6.6329
G1 X126.443 Y156.073 E6.75769
G1 X124.349 Y157.741 E6.88234
G1 X122.392 Y159.392 E7.00157
G1 X120.352 Y161.214 E7.12893
G1 X118.456 Y163.003 E7.25031
G1 X116.429 Y165.036 E7.38399
G1 X114.954 Y166.559 E7.48272
G1 X113.353 Y168.159 E7.58811
G1 X112.83 Y168.667 E7.62206
G1 X112.201 Y169.197 E7.66036
G1 X111.601 Y169.592 E7.69381
G1 X110.841 Y169.968 E7.73329
G1 X110.271 Y170.173 E7.7615
G1 X109.351 Y170.446 E7.80618
G1 X107.16 Y171.06 E7.91214
G1 X106.42 Y171.255 E7.94777
G1 X105.612 Y171.408 E7.98606
G1 X104.894 Y171.458 E8.01958
G1 X104.023 Y171.408 E8.0602
G1 X103.135 Y171.235 E8.10233
G1 X102.517 Y171.066 E8.13216
G1 X100.185 Y170.385 E8.24528
G1 X99.521 Y170.182 E8.27762
G1 X98.85 Y169.933 E8.31094
G1 X98.026 Y169.502 E8.35424
G1 X97.385 Y169.049 E8.39079
G1 X96.758 Y168.49 E8.42991
G1 X94.546 Y166.282 E8.57544
G1 X94.027 Y165.744 E8.61025
G1 X93.564 Y165.198 E8.64358
G1 X93.06 Y164.435 E8.68616
G1 X91.718 Y161.638 E8.83062
G1 X90.52 Y159.303 E8.95282
G1 X89.226 Y156.947 E9.07798
G1 X87.899 Y154.684 E9.20014
G1 X86.493 Y152.437 E9.32356
G1 X85.323 Y150.665 E9.42244
G1 X84.807 Y149.902 E9.46533
G1 X84.376 Y149.158 E9.50536
G1 X84.071 Y148.434 E9.54195
G1 X83.858 Y147.689 E9.57803
G1 X83.757 Y147.103 E9.60571
G1 X83.654 Y146.262 E9.64517
G1 X83.366 Y143.411 E9.7786
G1 X83.028 Y140.798 E9.90128
G1 X82.611 Y138.163 E10.02551
G1 X82.123 Y135.554 E10.1491
G1 X81.571 Y133.013 E10.27018
G1 X80.932 Y130.417 E10.39467
G1 X80.223 Y127.858 E10.51832
G1 X79.445 Y125.325 E10.6417
G1 X78.6 Y122.833 E10.76423
G1 X77.675 Y120.336 E10.88822
G1 X76.695 Y117.904 E11.01031
G1 X75.638 Y115.485 E11.13324
G1 X74.507 Y113.079 E11.25703
G1 X73.305 Y110.702 E11.38106
G1 X72.357 Y108.912 E11.47538
G1 X71.907 Y107.855 E11.52887
G1 X71.343 Y105.947 E11.62151
G1 X71.159 Y105.283 E11.6536
G1 X71.008 Y104.58 E11.68708
G1 X70.931 Y103.727 E11.72696
G1 X70.971 Y102.847 E11.76798
G1 X71.135 Y101.964 E11.8098
G1 X71.365 Y101.118 E11.85062
G1 X71.884 Y99.375 E11.9353
G1 X72.23 Y98.459 E11.9809
G1 X72.804 Y97.407 E12.0367
G1 X74.054 Y95.015 E12.16237
G1 X75.197 Y92.667 E12.28397
G1 X76.302 Y90.227 E12.4087
G1 X77.333 Y87.769 E12.53281
G1 X78.282 Y85.311 E12.6555
G1 X79.157 Y82.838 E12.77765
G1 X79.966 Y80.329 E12.9004
G1 X80.723 Y77.738 E13.0261
G1 X81.388 Y75.194 E13.14854
G1 X81.98 Y72.63 E13.27107
G1 X82.516 Y69.975 E13.39719
G1 X82.957 Y67.411 E13.51833
G1 X83.332 Y64.799 E13.64121
G1 X83.421 Y64.022 E13.67762
G1 X83.581 Y62.8 E13.73501
G1 X83.736 Y62.031 E13.77154
G1 X83.936 Y61.413 E13.80178
G1 X84.329 Y60.572 E13.84501
G1 X84.754 Y59.909 E13.88168
M204 S3000
M205 X10 Y10
G0 F3000 X85.187 Y60.265
M204 S1800
M205 X8 Y8
G1 F2400 X85.643 Y59.71 E13.91513
G1 X86.112 Y59.26 E13.94539
G1 X86.742 Y58.789 E13.98202
G1 X87.368 Y58.436 E14.01548
G1 X87.968 Y58.185 E14.04577
G1 X88.7 Y57.976 E14.08122
G1 X89.735 Y57.853 E14.12975
G1 X90.315 Y57.837 E14.15677
G1 X119.401 Y57.837 E15.51113
G1 X120.175 Y57.848 E15.54718
G1 X120.924 Y57.908 E15.58216
G1 X121.629 Y58.054 E15.61569
G1 X122.245 Y58.26 E15.64593
G1 X122.955 Y58.599 E15.68257
G1 X123.558 Y58.988 E15.71598
G1 X124.059 Y59.402 E15.74625
G1 X124.555 Y59.923 E15.77974
G1 X124.983 Y60.499 E15.81316
G1 X125.338 Y61.125 E15.84667
G1 X125.638 Y61.865 E15.88385
G1 X125.851 Y62.732 E15.92542
G1 X126.286 Y65.491 E16.05548
G1 X126.77 Y68.085 E16.17835
G1 X127.333 Y70.689 E16.3024
G1 X127.963 Y73.256 E16.42548
G1 X128.68 Y75.855 E16.55102
G1 X129.465 Y78.412 E16.67557
G1 X130.317 Y80.936 E16.79962
G1 X131.227 Y83.396 E16.92175
G1 X132.238 Y85.91 E17.04792
G1 X133.289 Y88.323 E17.17048
G1 X134.427 Y90.748 E17.29521
G1 X135.625 Y93.124 E17.41912
G1 X137.175 Y95.977 E17.5703
G1 X137.521 Y96.731 E17.60893
G1 X137.762 Y97.503 E17.64659
G1 X138.156 Y98.855 E17.71216
G1 X138.333 Y99.502 E17.7434
G1 X138.483 Y100.239 E17.77842
G1 X138.539 Y100.956 E17.81191
G1 X138.512 Y101.605 E17.84215
G1 X138.353 Y102.511 E17.88499
G1 X138.2 Y103.094 E17.91305
G1 X137.046 Y107.207 E18.11197
G1 X136.41 Y109.752 E18.23412
G1 X135.833 Y112.369 E18.3589
G1 X135.334 Y114.994 E18.48332
G1 X134.907 Y117.644 E18.60831
G1 X134.563 Y120.241 E18.73029
G1 X134.286 Y122.917 E18.85556
G1 X134.085 Y125.575 E18.97968
G1 X133.963 Y128.202 E19.10214
G1 X133.913 Y130.878 E19.22677
G1 X133.938 Y133.548 E19.3511
G1 X134.04 Y136.208 E19.47505
G1 X134.216 Y138.867 E19.59914
G1 X134.466 Y141.501 E19.72234
G1 X134.749 Y143.854 E19.83269
G1 X134.79 Y144.606 E19.86776
G1 X134.74 Y145.32 E19.90109
G1 X134.599 Y146.072 E19.93672
G1 X134.24 Y147.361 E19.99902
G1 X134.053 Y147.994 E20.02976
G1 X133.793 Y148.7 E20.06479
G1 X133.462 Y149.338 E20.09826
G1 X133.058 Y149.928 E20.13155
G1 X132.646 Y150.403 E20.16083
G1 X132.013 Y151.054 E20.20311
G1 X131.219 Y151.832 E20.25488
G1 X130.565 Y152.378 E20.29455
G1 X128.25 Y154.016 E20.4266
G1 X126.107 Y155.625 E20.55138
G1 X124 Y157.303 E20.6768
G1 X122.019 Y158.974 E20.79748
G1 X119.979 Y160.796 E20.92484
G1 X118.059 Y162.608 E21.04777
G1 X116.032 Y164.641 E21.18145
G1 X114.558 Y166.163 E21.28011
G1 X112.963 Y167.757 E21.38511
G1 X112.44 Y168.265 E21.41906
G1 X111.893 Y168.729 E21.45246
G1 X111.293 Y169.124 E21.48591
G1 X110.651 Y169.441 E21.51925
G1 X110.081 Y169.646 E21.54746
G1 X109.2 Y169.907 E21.59024
G1 X107.017 Y170.518 E21.6958
G1 X106.277 Y170.713 E21.73143
G1 X105.573 Y170.849 E21.76482
G1 X104.855 Y170.899 E21.79833
G1 X104.129 Y170.858 E21.83219
G1 X103.283 Y170.695 E21.87231
G1 X102.674 Y170.528 E21.90171
G1 X100.349 Y169.849 E22.0145
G1 X99.685 Y169.646 E22.04683
G1 X99.045 Y169.408 E22.07862
G1 X98.347 Y169.043 E22.1153
G1 X97.758 Y168.631 E22.14877
G1 X97.131 Y168.072 E22.18789
G1 X94.949 Y165.893 E22.33148
G1 X94.452 Y165.379 E22.36477
G1 X94.029 Y164.886 E22.39502
G1 X93.565 Y164.193 E22.43385
G1 X92.223 Y161.396 E22.57831
G1 X91.011 Y159.033 E22.70197
G1 X89.717 Y156.677 E22.82713
G1 X88.374 Y154.387 E22.95075
G1 X86.968 Y152.14 E23.07417
G1 X85.787 Y150.351 E23.17399
G1 X85.271 Y149.588 E23.21688
G1 X84.891 Y148.938 E23.25194
G1 X84.609 Y148.278 E23.28536
G1 X84.41 Y147.593 E23.31857
G1 X84.313 Y147.035 E23.34495
G1 X84.211 Y146.206 E23.38384
G1 X83.923 Y143.355 E23.51727
G1 X83.581 Y140.71 E23.64146
G1 X83.164 Y138.075 E23.76568
G1 X82.673 Y135.451 E23.88999
G1 X82.115 Y132.879 E24.01253
G1 X81.476 Y130.283 E24.13702
G1 X80.763 Y127.709 E24.26139
G1 X79.98 Y125.161 E24.38551
G1 X79.125 Y122.638 E24.50956
G1 X78.2 Y120.141 E24.63355
G1 X77.208 Y117.68 E24.7571
G1 X76.145 Y115.247 E24.88074
G1 X75.007 Y112.826 E25.0053
G1 X73.805 Y110.449 E25.12933
G1 X73.531 Y109.943 E25.15612
G1 X73.465 Y109.804 E25.16329
G1 X72.852 Y108.649 E25.22418
G1 X72.444 Y107.696 E25.27245
G1 X71.883 Y105.797 E25.36465
G1 X71.699 Y105.133 E25.39674
G1 X71.556 Y104.463 E25.42864
G1 X71.489 Y103.679 E25.46528
G1 X71.522 Y102.949 E25.4993
G1 X71.686 Y102.066 E25.54112
G1 X71.902 Y101.277 E25.57921
G1 X72.409 Y99.57 E25.66213
G1 X72.722 Y98.727 E25.704
G1 X73.295 Y97.675 E25.75978
G1 X74.55 Y95.274 E25.88593
G1 X75.707 Y92.898 E26.00899
G1 X76.812 Y90.458 E26.13372
G1 X77.849 Y87.986 E26.25854
G1 X78.81 Y85.498 E26.38273
G1 X79.685 Y83.025 E26.50488
G1 X80.504 Y80.486 E26.62911
G1 X81.261 Y77.895 E26.7548
G1 X81.93 Y75.336 E26.87796
G1 X82.526 Y72.756 E27.00126
G1 X83.065 Y70.086 E27.12809
G1 X83.509 Y67.506 E27.25
G1 X83.886 Y64.879 E27.37357
G1 X83.976 Y64.094 E27.41037
G1 X84.13 Y62.908 E27.46605
G1 X84.269 Y62.203 E27.49951
G1 X84.469 Y61.585 E27.52976
G1 X84.802 Y60.872 E27.5664
G1 X85.187 Y60.265 E27.59987
M204 S3000
M205 X10 Y10
G0 F3000 X85.622 Y60.618
M204 S1800
M205 X8 Y8
G1 F2400 X86.031 Y60.114 E27.6301
G1 X86.5 Y59.664 E27.66036
G1 X87.02 Y59.275 E27.6906
G1 X87.584 Y58.953 E27.72084
G1 X88.184 Y58.702 E27.75113
G1 X88.809 Y58.527 E27.78135
G1 X89.75 Y58.413 E27.82549
G1 X90.33 Y58.397 E27.8525
G1 X119.393 Y58.397 E29.2058
G1 X120.167 Y58.408 E29.24184
G1 X120.814 Y58.457 E29.27206
G1 X121.451 Y58.585 E29.30231
G1 X122.067 Y58.791 E29.33256
G1 X122.654 Y59.071 E29.36284
G1 X123.201 Y59.42 E29.39305
G1 X123.702 Y59.834 E29.42332
G1 X124.147 Y60.307 E29.45356
G1 X124.532 Y60.831 E29.48383
G1 X124.849 Y61.398 E29.51408
G1 X125.094 Y61.999 E29.5443
G1 X125.307 Y62.866 E29.58587
G1 X125.736 Y65.594 E29.71446
G1 X126.223 Y68.203 E29.83805
G1 X126.789 Y70.823 E29.96286
G1 X127.423 Y73.405 E30.08666
G1 X128.14 Y76.004 E30.2122
G1 X128.934 Y78.591 E30.33821
G1 X129.786 Y81.115 E30.46225
G1 X130.707 Y83.605 E30.58587
G1 X131.718 Y86.119 E30.71205
G1 X132.782 Y88.561 E30.83608
G1 X133.927 Y91 E30.96154
G1 X135.133 Y93.391 E31.08624
G1 X136.667 Y96.214 E31.23584
G1 X136.986 Y96.898 E31.27099
G1 X137.224 Y97.66 E31.30816
G1 X137.616 Y99.003 E31.3733
G1 X137.793 Y99.65 E31.40454
G1 X137.925 Y100.286 E31.43478
G1 X137.979 Y100.933 E31.46502
G1 X137.952 Y101.582 E31.49526
G1 X137.811 Y102.369 E31.53249
G1 X137.661 Y102.943 E31.56012
G1 X136.507 Y107.056 E31.75903
G1 X135.863 Y109.631 E31.88263
G1 X135.286 Y112.248 E32.00741
G1 X134.784 Y114.889 E32.13259
G1 X134.354 Y117.555 E32.25833
G1 X134.008 Y120.167 E32.38102
G1 X133.729 Y122.859 E32.50704
G1 X133.527 Y125.533 E32.63191
G1 X133.403 Y128.192 E32.75586
G1 X133.353 Y130.868 E32.88049
G1 X133.378 Y133.57 E33.00631
G1 X133.481 Y136.245 E33.13096
G1 X133.657 Y138.904 E33.25505
G1 X133.91 Y141.568 E33.37965
G1 X134.193 Y143.921 E33.49001
G1 X134.231 Y144.57 E33.52028
G1 X134.189 Y145.218 E33.55052
G1 X134.059 Y145.922 E33.58385
G1 X133.703 Y147.202 E33.64572
G1 X133.516 Y147.835 E33.67645
G1 X133.294 Y148.445 E33.70668
G1 X132.998 Y149.024 E33.73696
G1 X132.634 Y149.562 E33.7672
G1 X132.244 Y150.013 E33.79497
G1 X131.62 Y150.655 E33.83665
G1 X130.86 Y151.402 E33.88628
G1 X130.206 Y151.948 E33.92595
G1 X127.914 Y153.568 E34.05664
G1 X125.771 Y155.177 E34.18142
G1 X123.651 Y156.865 E34.30761
G1 X121.646 Y158.556 E34.42974
G1 X119.606 Y160.378 E34.5571
G1 X117.675 Y162.201 E34.68076
G1 X115.63 Y164.251 E34.81559
G1 X114.162 Y165.767 E34.91385
G1 X112.572 Y167.356 E35.01852
G1 X112.075 Y167.84 E35.05083
G1 X111.582 Y168.263 E35.08107
G1 X111.042 Y168.623 E35.11129
G1 X110.461 Y168.914 E35.14155
G1 X109.891 Y169.119 E35.16976
G1 X109.049 Y169.368 E35.21064
G1 X106.874 Y169.977 E35.31582
G1 X106.168 Y170.164 E35.34982
G1 X105.531 Y170.291 E35.38007
G1 X104.883 Y170.34 E35.41033
G1 X104.234 Y170.308 E35.44059
G1 X103.431 Y170.155 E35.47865
G1 X102.831 Y169.991 E35.50761
G1 X100.513 Y169.313 E35.62007
G1 X99.849 Y169.11 E35.6524
G1 X99.241 Y168.883 E35.68262
G1 X98.665 Y168.582 E35.71288
G1 X98.131 Y168.213 E35.74311
G1 X97.504 Y167.654 E35.78222
G1 X95.351 Y165.503 E35.92394
G1 X94.877 Y165.014 E35.95565
G1 X94.454 Y164.521 E35.9859
G1 X94.032 Y163.884 E36.02147
G1 X92.721 Y161.14 E36.16308
G1 X91.502 Y158.763 E36.28747
G1 X90.208 Y156.407 E36.41263
G1 X88.849 Y154.09 E36.53771
G1 X87.443 Y151.843 E36.66114
G1 X86.254 Y150.042 E36.76163
G1 X85.735 Y149.274 E36.80479
G1 X85.405 Y148.715 E36.83501
G1 X85.146 Y148.119 E36.86527
G1 X84.962 Y147.496 E36.89552
G1 X84.869 Y146.966 E36.92058
G1 X84.768 Y146.15 E36.95886
G1 X84.48 Y143.299 E37.09229
G1 X84.136 Y140.638 E37.21723
G1 X83.717 Y137.988 E37.34216
G1 X83.223 Y135.348 E37.46722
G1 X82.659 Y132.745 E37.59124
G1 X82.02 Y130.149 E37.71573
G1 X81.302 Y127.559 E37.84088
G1 X80.515 Y124.997 E37.96568
G1 X79.65 Y122.443 E38.09124
G1 X78.725 Y119.946 E38.21523
G1 X77.721 Y117.456 E38.34025
G1 X76.652 Y115.009 E38.46459
G1 X75.507 Y112.573 E38.58992
G1 X74.305 Y110.196 E38.71395
G1 X74.023 Y109.676 E38.7415
G1 X73.96 Y109.541 E38.74844
G1 X73.347 Y108.386 E38.80932
G1 X72.959 Y107.476 E38.85539
G1 X72.423 Y105.647 E38.94413
G1 X72.239 Y104.983 E38.97622
G1 X72.104 Y104.347 E39.00649
G1 X72.049 Y103.7 E39.03673
G1 X72.073 Y103.051 E39.06697
G1 X72.237 Y102.168 E39.10879
G1 X72.439 Y101.436 E39.14415
G1 X72.946 Y99.729 E39.22706
G1 X73.214 Y98.995 E39.26345
G1 X73.786 Y97.943 E39.31921
G1 X75.046 Y95.533 E39.44584
G1 X76.217 Y93.129 E39.57035
G1 X77.322 Y90.689 E39.69508
G1 X78.365 Y88.203 E39.82061
G1 X79.338 Y85.685 E39.94631
G1 X80.213 Y83.212 E40.06846
G1 X81.042 Y80.643 E40.19416
G1 X81.799 Y78.052 E40.31985
G1 X82.472 Y75.478 E40.44373
G1 X83.072 Y72.882 E40.5678
G1 X83.614 Y70.197 E40.69535
G1 X84.061 Y67.601 E40.81801
G1 X84.44 Y64.959 E40.94229
G1 X84.531 Y64.166 E40.97946
G1 X84.68 Y63.013 E41.03359
G1 X84.802 Y62.375 E41.06384
G1 X85.002 Y61.757 E41.09408
G1 X85.277 Y61.169 E41.12431
G1 X85.622 Y60.618 E41.15458
M204 S3000
M205 X10 Y10
G1 F2400 E35.15458
G0 F3000 X79.913 Y99.612
M204 S1800
M205 X8 Y8
G1 F2400 E41.15458
G1 X82.207 Y98.969 E41.26552
G1 X84.501 Y99.612 E41.37645
G1 X86.163 Y101.367 E41.489
G1 X86.807 Y103.572 E41.59596
G1 X86.165 Y105.866 E41.70689
G1 X84.503 Y107.528 E41.81633
G1 X82.21 Y108.169 E41.9272
G1 X80.007 Y107.526 E42.03406
G1 X78.251 Y105.77 E42.14969
G1 X77.608 Y103.569 E42.25647
G1 X78.251 Y101.367 E42.36328
G1 X79.913 Y99.612 E42.47583
M204 S3000
M205 X10 Y10
G0 F3000 X80.214 Y100.109
M204 S1800
M205 X8 Y8
G1 F2400 X82.207 Y99.551 E42.5722
G1 X84.2 Y100.109 E42.66857
G1 X85.664 Y101.656 E42.76775
G1 X86.225 Y103.575 E42.86085
G1 X85.665 Y105.574 E42.95751
G1 X84.211 Y107.028 E43.05326
G1 X82.213 Y107.587 E43.14987
