;FLAVOR:Marlin
;TIME:8279
;Filament used: 6.4926m
;Layer height: 0.2
;MINX:70.73
;MINY:57.277
;MINZ:0.1
;MAXX:139.208
;MAXY:171.458
;MAXZ:45.6
;TARGET_MACHINE.NAME:Anycubic i3 Mega
;Generated with Cura_SteamEngine 5.7.0-alpha.0
M140 S60
M105
M190 S60
M104 S220
M105
M109 S220
M82 ;absolute extrusion mode
G21 ;metric values
G90 ;absolute positioning
M82 ;set extruder to absolute mode
M107 ;start with the fan off
G28 X0 Y0 ;move X/Y to min endstops
G28 Z0 ;move Z to min endstops
G1 Z15.0 F100 ;move the platform down 15mm
G92 E0 ;zero the extruded length
G1 F200 E3 ;extrude 3mm of feed stock
G92 E0 ;zero the extruded length again
G1 F100
G0 Y20 F100
M117 Printing...
G5
G92 E0
G92 E0
G1 F2400 E-6
;LAYER_COUNT:228
;LAYER:0
M107
M204 S3000
M205 X10 Y10
G1 F600 Z0.275
G0 F3000 X84.766 Y59.879 Z0.275
M204 S1800
M205 X8 Y8
;TYPE:SKIRT
G1 F600 Z0.2
G1 F2400 E0
G1 X85.225 Y59.327 E0.03343
G1 X85.908 Y58.693 E0.07682
G1 X86.548 Y58.241 E0.11331
G1 X87.117 Y57.928 E0.14355
G1 X87.981 Y57.585 E0.18683
G1 X88.765 Y57.391 E0.22444
G1 X89.736 Y57.283 E0.26993
G1 X119.309 Y57.277 E1.64697
G1 X120.165 Y57.289 E1.68684
G1 X121.017 Y57.36 E1.72665
G1 X121.718 Y57.505 E1.75998
G1 X122.468 Y57.755 E1.79679
G1 X123.238 Y58.127 E1.83661
G1 X123.84 Y58.515 E1.86996
G1 X124.397 Y58.971 E1.90348
G1 X125.034 Y59.646 E1.9467
G1 X125.493 Y60.283 E1.98326
G1 X125.81 Y60.849 E2.01346
G1 X126.106 Y61.545 E2.04868
G1 X126.35 Y62.234 E2.08272
G1 X127.299 Y64.796 E2.20993
G1 X128.282 Y67.239 E2.33255
G1 X129.34 Y69.665 E2.45579
G1 X130.457 Y72.044 E2.57817
G1 X131.662 Y74.43 E2.70264
G1 X132.912 Y76.744 E2.82511
G1 X134.229 Y79.022 E2.94763
G1 X135.652 Y81.329 E3.07385
G1 X137.049 Y83.461 E3.19253
G1 X137.356 Y83.915 E3.21805
G1 X137.793 Y84.675 E3.25888
G1 X138.185 Y85.636 E3.3072
G1 X138.753 Y87.602 E3.40249
G1 X138.949 Y88.332 E3.43769
G1 X139.113 Y89.099 E3.47421
G1 X139.208 Y90.084 E3.52029
G1 X139.179 Y90.893 E3.55798
G1 X139.008 Y91.882 E3.60472
G1 X138.71 Y93.022 E3.65959
G1 X138.252 Y94.612 E3.73663
G1 X137.919 Y95.518 E3.78158
G1 X137.249 Y96.788 E3.84844
G1 X136 Y99.24 E3.97658
G1 X134.89 Y101.583 E4.0973
G1 X133.797 Y104.067 E4.22367
G1 X132.808 Y106.494 E4.3457
G1 X131.889 Y108.952 E4.4679
G1 X131.026 Y111.476 E4.5921
G1 X130.241 Y113.996 E4.71501
G1 X129.52 Y116.564 E4.83921
G1 X128.886 Y119.103 E4.96106
G1 X128.308 Y121.733 E5.08645
G1 X127.811 Y124.342 E5.21012
G1 X127.397 Y126.912 E5.33133
G1 X127.049 Y129.534 E5.4545
G1 X126.772 Y132.198 E5.57921
G1 X126.573 Y134.829 E5.70207
G1 X126.452 Y137.431 E5.82336
G1 X126.4 Y140.549 E5.96857
G1 X126.399 Y144.893 E6.17084
G1 X126.387 Y145.667 E6.20689
G1 X126.34 Y146.315 E6.23714
G1 X126.238 Y147.123 E6.27506
G1 X126.072 Y147.966 E6.31507
G1 X125.873 Y148.584 E6.3453
G1 X125.488 Y149.416 E6.38799
G1 X125.16 Y149.949 E6.41713
G1 X124.669 Y150.657 E6.45725
G1 X123.965 Y151.638 E6.51348
G1 X122.511 Y153.788 E6.63434
G1 X121.078 Y156.04 E6.75863
G1 X119.727 Y158.307 E6.88151
G1 X118.444 Y160.605 E7.00406
G1 X116.735 Y163.919 E7.17769
G1 X116.518 Y164.357 E7.20045
G1 X116.158 Y164.98 E7.23395
G1 X115.581 Y165.746 E7.27861
G1 X114.787 Y166.563 E7.33166
G1 X113.189 Y168.16 E7.43686
G1 X112.643 Y168.689 E7.47226
G1 X112.15 Y169.113 E7.50253
G1 X111.378 Y169.626 E7.54569
G1 X110.679 Y169.968 E7.58193
G1 X110.082 Y170.182 E7.61146
G1 X109.266 Y170.424 E7.65109
G1 X106.996 Y171.06 E7.76086
G1 X106.256 Y171.255 E7.7965
G1 X105.448 Y171.408 E7.83479
G1 X104.73 Y171.458 E7.8683
G1 X103.859 Y171.408 E7.90893
G1 X102.971 Y171.235 E7.95105
G1 X102.353 Y171.066 E7.98089
G1 X100.021 Y170.385 E8.09401
G1 X99.357 Y170.182 E8.12634
G1 X98.686 Y169.933 E8.15967
G1 X97.862 Y169.502 E8.20297
G1 X97.221 Y169.049 E8.23952
G1 X96.594 Y168.49 E8.27863
G1 X94.387 Y166.287 E8.42384
G1 X93.097 Y164.959 E8.51004
G1 X92.659 Y164.496 E8.53972
G1 X90.804 Y162.643 E8.66181
G1 X88.858 Y160.805 E8.78645
G1 X86.882 Y159.043 E8.90973
G1 X84.893 Y157.367 E9.03084
G1 X82.768 Y155.676 E9.1573
G1 X80.654 Y154.092 E9.2803
G1 X79.137 Y153.004 E9.36723
G1 X78.416 Y152.407 E9.41082
G1 X77.008 Y150.987 E9.50393
G1 X76.489 Y150.392 E9.5407
G1 X76.014 Y149.682 E9.58048
G1 X75.664 Y148.986 E9.61675
G1 X75.464 Y148.45 E9.64339
G1 X75.237 Y147.721 E9.67894
G1 X74.882 Y146.467 E9.73963
G1 X74.724 Y145.731 E9.77468
G1 X74.65 Y144.869 E9.81497
G1 X74.685 Y144.057 E9.85281
G1 X74.928 Y141.842 E9.95657
G1 X75.151 Y139.186 E10.08068
G1 X75.295 Y136.575 E10.20244
G1 X75.368 Y133.907 E10.32672
G1 X75.364 Y131.268 E10.44961
G1 X75.285 Y128.592 E10.57427
G1 X75.133 Y125.961 E10.69698
G1 X74.905 Y123.331 E10.81991
G1 X74.603 Y120.702 E10.94313
G1 X74.233 Y118.125 E11.06435
G1 X73.776 Y115.482 E11.18925
G1 X73.252 Y112.881 E11.3128
G1 X72.655 Y110.302 E11.43606
G1 X71.98 Y107.723 E11.56019
G1 X71.15 Y104.851 E11.6994
G1 X70.952 Y104.131 E11.73417
G1 X70.809 Y103.462 E11.76603
G1 X70.73 Y102.538 E11.80921
G1 X70.764 Y101.809 E11.84319
G1 X70.959 Y100.756 E11.89306
G1 X71.163 Y100.017 E11.92875
G1 X71.691 Y98.243 E12.01494
G1 X72.032 Y97.337 E12.06002
G1 X73.523 Y94.493 E12.20954
G1 X74.687 Y92.105 E12.33324
G1 X76.566 Y87.943 E12.54588
G1 X77.592 Y85.498 E12.66934
G1 X78.555 Y83.004 E12.79383
G1 X79.433 Y80.53 E12.91607
G1 X80.239 Y78.03 E13.03838
G1 X80.991 Y75.457 E13.1632
G1 X81.663 Y72.888 E13.28685
G1 X82.252 Y70.344 E13.40845
G1 X82.788 Y67.693 E13.53438
G1 X83.234 Y65.103 E13.65676
G1 X83.583 Y62.725 E13.76868
G1 X83.759 Y61.919 E13.80709
G1 X83.996 Y61.241 E13.84054
G1 X84.373 Y60.477 E13.88021
G1 X84.766 Y59.879 E13.91353
M204 S3000
M205 X10 Y10
G0 F3000 X85.197 Y60.237
M204 S1800
M205 X8 Y8
G1 F2400 X85.656 Y59.685 E13.94696
G1 X86.233 Y59.149 E13.98363
G1 X86.818 Y58.732 E14.01708
G1 X87.387 Y58.419 E14.04732
G1 X88.119 Y58.128 E14.084
G1 X88.827 Y57.948 E14.11801
G1 X89.798 Y57.84 E14.16351
G1 X119.301 Y57.837 E15.53729
G1 X120.157 Y57.849 E15.57715
G1 X120.907 Y57.909 E15.61219
G1 X121.544 Y58.037 E15.64244
G1 X122.227 Y58.26 E15.6759
G1 X122.937 Y58.599 E15.71253
G1 X123.485 Y58.948 E15.74279
G1 X124.042 Y59.404 E15.7763
G1 X124.581 Y59.975 E15.81287
G1 X125.004 Y60.557 E15.84637
G1 X125.321 Y61.123 E15.87658
G1 X125.578 Y61.732 E15.90736
G1 X125.822 Y62.421 E15.94139
G1 X126.779 Y65.005 E16.0697
G1 X127.762 Y67.448 E16.19232
G1 X128.833 Y69.903 E16.31704
G1 X129.957 Y72.297 E16.44019
G1 X131.169 Y74.696 E16.56534
G1 X132.427 Y77.024 E16.68856
G1 X133.752 Y79.316 E16.81184
G1 X135.175 Y81.623 E16.93805
G1 X136.585 Y83.775 E17.05785
G1 X136.892 Y84.229 E17.08337
G1 X137.275 Y84.888 E17.11886
G1 X137.647 Y85.791 E17.16434
G1 X138.212 Y87.748 E17.25919
G1 X138.401 Y88.449 E17.29299
G1 X138.565 Y89.216 E17.32951
G1 X138.648 Y90.068 E17.36937
G1 X138.627 Y90.799 E17.40343
G1 X138.466 Y91.741 E17.44793
G1 X138.172 Y92.867 E17.50212
G1 X137.714 Y94.457 E17.57916
G1 X137.424 Y95.257 E17.61879
G1 X136.754 Y96.527 E17.68565
G1 X135.501 Y98.986 E17.81416
G1 X134.377 Y101.357 E17.93634
G1 X133.284 Y103.841 E18.06271
G1 X132.29 Y106.283 E18.18548
G1 X131.359 Y108.771 E18.30917
G1 X130.491 Y111.309 E18.43407
G1 X129.706 Y113.829 E18.55698
G1 X128.981 Y116.413 E18.68194
G1 X128.343 Y118.967 E18.80452
G1 X127.761 Y121.613 E18.93068
G1 X127.261 Y124.237 E19.05506
G1 X126.844 Y126.823 E19.17703
G1 X126.494 Y129.46 E19.3009
G1 X126.215 Y132.14 E19.42636
G1 X126.015 Y134.787 E19.54997
G1 X125.892 Y137.422 E19.6728
G1 X125.84 Y140.54 E19.81801
G1 X125.839 Y144.885 E20.02033
G1 X125.828 Y145.627 E20.05488
G1 X125.784 Y146.245 E20.08373
G1 X125.682 Y147.053 E20.12166
G1 X125.539 Y147.794 E20.1568
G1 X125.34 Y148.412 E20.18703
G1 X125.011 Y149.123 E20.22351
G1 X124.7 Y149.63 E20.2512
G1 X124.214 Y150.33 E20.29088
G1 X123.51 Y151.311 E20.34711
G1 X122.047 Y153.474 E20.4687
G1 X120.597 Y155.753 E20.59448
G1 X119.246 Y158.02 E20.71736
G1 X117.946 Y160.348 E20.84152
G1 X116.237 Y163.662 E21.01515
G1 X116.031 Y164.08 E21.03685
G1 X115.709 Y164.645 E21.06713
G1 X115.179 Y165.356 E21.10842
G1 X114.391 Y166.167 E21.16107
G1 X112.799 Y167.758 E21.26588
G1 X112.278 Y168.264 E21.2997
G1 X111.785 Y168.688 E21.32997
G1 X111.13 Y169.124 E21.36661
G1 X110.489 Y169.441 E21.39991
G1 X109.922 Y169.645 E21.42797
G1 X109.115 Y169.885 E21.46717
G1 X106.853 Y170.518 E21.57655
G1 X106.113 Y170.713 E21.61218
G1 X105.409 Y170.849 E21.64557
G1 X104.691 Y170.899 E21.67908
G1 X103.965 Y170.858 E21.71294
G1 X103.119 Y170.695 E21.75306
G1 X102.51 Y170.528 E21.78247
G1 X100.185 Y169.849 E21.89525
G1 X99.521 Y169.646 E21.92758
G1 X98.881 Y169.408 E21.95938
G1 X98.183 Y169.043 E21.99605
G1 X97.594 Y168.631 E22.02952
G1 X96.967 Y168.072 E22.06864
G1 X94.789 Y165.897 E22.21196
G1 X93.504 Y164.574 E22.29784
G1 X93.066 Y164.111 E22.32752
G1 X91.189 Y162.236 E22.45106
G1 X89.243 Y160.398 E22.5757
G1 X87.255 Y158.625 E22.69974
G1 X85.242 Y156.929 E22.8223
G1 X83.117 Y155.238 E22.94876
G1 X80.99 Y153.644 E23.07253
G1 X79.493 Y152.572 E23.15826
G1 X78.814 Y152.013 E23.19922
G1 X77.406 Y150.593 E23.29233
G1 X76.911 Y150.024 E23.32745
G1 X76.513 Y149.429 E23.36078
G1 X76.189 Y148.79 E23.39414
G1 X75.989 Y148.254 E23.42078
G1 X75.776 Y147.568 E23.45423
G1 X75.43 Y146.349 E23.51323
G1 X75.272 Y145.613 E23.54829
G1 X75.21 Y144.892 E23.58198
G1 X75.242 Y144.118 E23.61805
G1 X75.485 Y141.903 E23.72181
G1 X75.709 Y139.233 E23.84658
G1 X75.855 Y136.59 E23.96983
G1 X75.928 Y133.922 E24.09411
G1 X75.924 Y131.267 E24.21774
G1 X75.845 Y128.576 E24.3431
G1 X75.692 Y125.929 E24.46656
G1 X75.463 Y123.283 E24.59023
G1 X75.159 Y120.638 E24.7142
G1 X74.785 Y118.03 E24.83688
G1 X74.328 Y115.387 E24.96178
G1 X73.801 Y112.77 E25.08608
G1 X73.201 Y110.176 E25.21006
G1 X72.522 Y107.581 E25.33496
G1 X71.69 Y104.702 E25.47451
G1 X71.5 Y104.014 E25.50774
G1 X71.357 Y103.345 E25.5396
G1 X71.29 Y102.56 E25.57628
G1 X71.315 Y101.91 E25.60657
G1 X71.499 Y100.905 E25.65415
G1 X71.7 Y100.177 E25.68931
G1 X72.228 Y98.403 E25.7755
G1 X72.528 Y97.597 E25.81555
G1 X74.019 Y94.753 E25.96507
G1 X75.19 Y92.35 E26.08954
G1 X77.082 Y88.16 E26.30361
G1 X78.108 Y85.715 E26.42708
G1 X79.083 Y83.191 E26.55307
G1 X79.961 Y80.717 E26.67531
G1 X80.777 Y78.187 E26.7991
G1 X81.529 Y75.614 E26.92392
G1 X82.205 Y73.03 E27.04829
G1 X82.798 Y70.47 E27.17065
G1 X83.337 Y67.804 E27.2973
G1 X83.786 Y65.198 E27.42044
G1 X84.137 Y62.806 E27.53301
G1 X84.288 Y62.104 E27.56645
G1 X84.525 Y61.426 E27.59989
G1 X84.843 Y60.782 E27.63333
G1 X85.197 Y60.237 E27.66359
M204 S3000
M205 X10 Y10
G0 F3000 X85.667 Y60.542
M204 S1800
M205 X8 Y8
G1 F2400 X86.085 Y60.045 E27.69383
G1 X86.561 Y59.603 E27.72408
G1 X87.088 Y59.223 E27.75433
G1 X87.657 Y58.91 E27.78457
G1 X88.261 Y58.67 E27.81484
G1 X88.889 Y58.505 E27.84507
G1 X89.86 Y58.397 E27.89056
G1 X119.293 Y58.397 E29.26109
G1 X120.149 Y58.409 E29.30095
G1 X120.797 Y58.458 E29.33121
G1 X121.434 Y58.586 E29.36147
G1 X122.05 Y58.791 E29.3917
G1 X122.636 Y59.071 E29.42194
G1 X123.184 Y59.42 E29.45219
G1 X123.685 Y59.835 E29.48248
G1 X124.13 Y60.307 E29.51269
G1 X124.515 Y60.831 E29.54297
G1 X124.832 Y61.397 E29.57317
G1 X125.05 Y61.92 E29.59956
G1 X125.295 Y62.609 E29.63361
G1 X126.259 Y65.214 E29.76295
G1 X127.242 Y67.657 E29.88557
G1 X128.326 Y70.141 E30.01177
G1 X129.457 Y72.55 E30.13569
G1 X130.676 Y74.962 E30.26153
G1 X131.942 Y77.304 E30.38549
G1 X133.275 Y79.61 E30.50952
G1 X134.698 Y81.917 E30.63574
G1 X136.121 Y84.089 E30.75665
G1 X136.428 Y84.543 E30.78217
G1 X136.758 Y85.103 E30.81243
G1 X137.109 Y85.946 E30.85495
G1 X137.671 Y87.894 E30.94936
G1 X137.86 Y88.595 E30.98317
G1 X138.008 Y89.273 E31.01548
G1 X138.088 Y90.057 E31.05218
G1 X138.075 Y90.706 E31.0824
G1 X137.924 Y91.6 E31.12462
G1 X137.634 Y92.712 E31.17813
G1 X137.186 Y94.27 E31.25362
G1 X136.929 Y94.996 E31.28948
G1 X136.259 Y96.266 E31.35634
G1 X135.002 Y98.732 E31.48523
G1 X133.864 Y101.131 E31.60886
G1 X132.771 Y103.615 E31.73523
G1 X131.772 Y106.072 E31.85874
G1 X130.829 Y108.59 E31.98394
G1 X129.956 Y111.142 E32.10953
G1 X129.171 Y113.662 E32.23243
G1 X128.442 Y116.262 E32.35817
G1 X127.8 Y118.831 E32.48147
G1 X127.214 Y121.493 E32.60839
G1 X126.711 Y124.132 E32.73349
G1 X126.291 Y126.734 E32.85622
G1 X125.939 Y129.386 E32.98079
G1 X125.658 Y132.082 E33.107
G1 X125.457 Y134.745 E33.23136
G1 X125.332 Y137.413 E33.35573
G1 X125.28 Y140.531 E33.50093
G1 X125.279 Y144.877 E33.7033
G1 X125.269 Y145.588 E33.73641
G1 X125.228 Y146.175 E33.76381
G1 X125.126 Y146.983 E33.80173
G1 X125.006 Y147.622 E33.83201
G1 X124.807 Y148.24 E33.86224
G1 X124.534 Y148.83 E33.89251
G1 X124.223 Y149.337 E33.92021
G1 X123.759 Y150.003 E33.958
G1 X123.055 Y150.984 E34.01423
G1 X121.583 Y153.16 E34.13656
G1 X120.116 Y155.466 E34.26382
G1 X118.765 Y157.733 E34.38671
G1 X117.448 Y160.091 E34.51247
G1 X115.739 Y163.405 E34.68609
G1 X115.544 Y163.803 E34.70673
G1 X115.222 Y164.368 E34.73701
G1 X114.777 Y164.966 E34.77172
G1 X113.995 Y165.771 E34.82398
G1 X112.408 Y167.357 E34.92845
G1 X111.913 Y167.839 E34.96063
G1 X111.42 Y168.263 E34.9909
G1 X110.879 Y168.623 E35.02116
G1 X110.299 Y168.914 E35.05138
G1 X109.732 Y169.118 E35.07944
G1 X108.964 Y169.346 E35.11674
G1 X106.71 Y169.977 E35.22573
G1 X106.004 Y170.164 E35.25974
G1 X105.367 Y170.291 E35.28999
G1 X104.719 Y170.34 E35.32025
G1 X104.07 Y170.308 E35.3505
G1 X103.267 Y170.155 E35.38857
G1 X102.667 Y169.991 E35.41753
G1 X100.349 Y169.313 E35.52999
G1 X99.685 Y169.11 E35.56232
G1 X99.077 Y168.883 E35.59254
G1 X98.501 Y168.582 E35.6228
G1 X97.967 Y168.213 E35.65303
G1 X97.34 Y167.654 E35.69214
G1 X95.191 Y165.507 E35.83359
G1 X93.911 Y164.189 E35.91914
G1 X93.473 Y163.726 E35.94882
G1 X91.574 Y161.829 E36.0738
G1 X89.628 Y159.991 E36.19845
G1 X87.628 Y158.207 E36.32324
G1 X85.591 Y156.491 E36.44726
G1 X83.466 Y154.8 E36.57372
G1 X81.326 Y153.196 E36.69825
G1 X79.847 Y152.138 E36.78292
G1 X79.212 Y151.619 E36.82111
G1 X77.804 Y150.199 E36.91423
G1 X77.375 Y149.71 E36.94452
G1 X77.011 Y149.173 E36.97473
G1 X76.714 Y148.594 E37.00503
G1 X76.514 Y148.058 E37.03167
G1 X76.315 Y147.415 E37.06301
G1 X75.969 Y146.196 E37.12201
G1 X75.83 Y145.561 E37.15228
G1 X75.77 Y144.914 E37.18254
G1 X75.799 Y144.179 E37.21679
G1 X76.042 Y141.964 E37.32055
G1 X76.267 Y139.28 E37.44596
G1 X76.415 Y136.605 E37.57071
G1 X76.488 Y133.937 E37.69499
G1 X76.484 Y131.266 E37.81936
G1 X76.405 Y128.56 E37.94542
G1 X76.251 Y125.897 E38.06963
G1 X76.021 Y123.235 E38.19404
G1 X75.715 Y120.574 E38.31877
G1 X75.337 Y117.935 E38.44291
G1 X74.88 Y115.292 E38.5678
G1 X74.35 Y112.659 E38.69286
G1 X73.747 Y110.05 E38.81755
G1 X73.064 Y107.439 E38.94322
G1 X72.23 Y104.553 E39.0831
G1 X72.04 Y103.865 E39.11634
G1 X71.905 Y103.229 E39.14661
G1 X71.85 Y102.582 E39.17685
G1 X71.875 Y101.932 E39.20714
G1 X72.039 Y101.054 E39.24873
G1 X72.237 Y100.337 E39.28337
G1 X72.765 Y98.563 E39.36955
G1 X73.024 Y97.857 E39.40457
G1 X74.515 Y95.013 E39.55409
G1 X75.693 Y92.595 E39.67934
G1 X77.598 Y88.377 E39.89485
G1 X78.624 Y85.932 E40.01831
G1 X79.611 Y83.378 E40.14581
G1 X80.489 Y80.904 E40.26805
G1 X81.315 Y78.344 E40.3933
G1 X82.067 Y75.771 E40.51813
G1 X82.747 Y73.172 E40.64322
G1 X83.344 Y70.596 E40.76635
G1 X83.886 Y67.915 E40.89371
G1 X84.338 Y65.293 E41.01761
G1 X84.685 Y62.921 E41.12923
G1 X84.818 Y62.286 E41.15944
G1 X85.029 Y61.671 E41.18972
G1 X85.313 Y61.087 E41.21996
G1 X85.667 Y60.542 E41.25022
M204 S3000
M205 X10 Y10
G1 F2400 E35.25022
G0 F3000 X82.987 Y91.345
M204 S1800
M205 X8 Y8
G1 F2400 E41.25022
G1 X84.638 Y90.882 E41.33006
G1 X86.289 Y91.345 E41.4099
G1 X87.484 Y92.607 E41.49083
G1 X87.946 Y94.195 E41.56784
G1 X87.484 Y95.845 E41.64763
G1 X86.29 Y97.039 E41.72625
G1 X84.641 Y97.5 E41.80598
G1 X83.057 Y97.038 E41.88281
G1 X81.792 Y95.773 E41.96612
G1 X81.33 Y94.191 E42.04286
G1 X81.792 Y92.607 E42.11969
G1 X82.987 Y91.345 E42.20062
M204 S3000
M205 X10 Y10
G0 F3000 X83.288 Y91.842
M204 S1800
M205 X8 Y8
G1 F2400 X84.638 Y91.464 E42.2659
G1 X85.988 Y91.842 E42.33118
G1 X86.985 Y92.895 E42.3987
G1 X87.364 Y94.197 E42.46184
G1 X86.985 Y95.552 E42.52736
G1 X85.998 Y96.539 E42.59235
G1 X84.644 Y96.918 E42.65782
G1 X83.352 Y96.541 E42.72049
G1 X82.289 Y95.478 E42.7905
G1 X81.913 Y94.191 E42.85293
G1 X82.291 Y92.895 E42.91579
G1 X83.288 Y91.842 E42.98331
